X: 1
T: HEY, CA' THRO' -- JIG
B: Ryan's Mammoth Collection of Fiddle Tunes
R: jig
M: 9/8
L: 1/8
Z: Contributed 20010707124942 by John Chambers jmchambers:rcn.net
K: D
vd>ed A>BA F2F | d2d A>BA FF2 | G2G F>GF E2F | D2F A>BA FF2 \
| G2e F2d E2F | D2F A>BA F3 | G2e F2e E2F | D2F A>BA F3 :|
